svgs/fancade.svg

<svg width="192" height="192" viewBox="0 0 192 192" fill="none" xmlns="http://www.w3.org/2000/svg">
<path d="M24 168L168 120" stroke="black" stroke-width="12" stroke-linecap="round"/>
<path d="M65.1241 140.701C69.2254 132.5 65.9021 122.527 57.7012 118.426C49.5003 114.325 39.5274 117.648 35.4261 125.849C31.3248 134.05 34.6481 144.023 42.849 148.124" stroke="black" stroke-width="12" stroke-linecap="round"/>
<path d="M78.7012 111.426C86.9021 115.527 90.2254 125.5 86.1241 133.701" stroke="black" stroke-width="12" stroke-linecap="round"/>
<path d="M133.124 117.701C137.225 109.5 133.902 99.5274 125.701 95.4261C117.5 91.3248 107.527 94.6481 103.426 102.849C99.3248 111.05 102.648 121.023 110.849 125.124" stroke="black" stroke-width="12" stroke-linecap="round"/>
<path d="M154.124 110.701C156.994 104.962 156.228 98.3551 152.699 93.5" stroke="black" stroke-width="12" stroke-linecap="round"/>
<path d="M65.5 33.5L78.5 36.5" stroke="black" stroke-width="12" stroke-linecap="round" stroke-linejoin="round"/>
<path d="M151.5 79.5L122.5 71V60L62.5 46.5L57.5 72L70.5 75L63 120.5" stroke="black" stroke-width="12" stroke-linecap="round" stroke-linejoin="round"/>
</svg>

<svg xmlns="http://www.w3.org/2000/svg" width="192" height="192" fill="none" viewBox="0 0 192 192"><path stroke="#000" stroke-linecap="round" stroke-width="12" d="m24 168 144-48M65.124 140.701c4.101-8.201.778-18.174-7.423-22.275-8.2-4.101-18.174-.778-22.275 7.423-4.101 8.201-.778 18.174 7.423 22.275m35.852-36.698c8.201 4.101 11.524 14.074 7.423 22.275m47-16c4.101-8.201.778-18.174-7.423-22.275-8.201-4.101-18.174-.778-22.275 7.423-4.101 8.201-.778 18.174 7.423 22.275m43.275-14.423c2.87-5.739 2.104-12.346-1.425-17.201"/><path stroke="#000" stroke-linecap="round" stroke-linejoin="round" stroke-width="12" d="m65.5 33.5 13 3m73 43-29-8.5V60l-60-13.5-5 25.5 13 3-7.5 45.5"/></svg>
